public/svg/about-thumbs.svg

<svg width="74" height="74" viewBox="0 0 74 74" fill="none" xmlns="http://www.w3.org/2000/svg">
<g clip-path="url(#clip0_211_5350)">
<path d="M54.9253 29.2943C52.654 29.2943 50.4958 28.3733 48.8478 26.7009C47.4278 25.141 49.5721 23.0258 51.1126 24.4692C53.1874 26.6486 56.6635 26.6483 58.7382 24.4692C60.275 23.0269 62.4246 25.1384 61.003 26.7011C59.3552 28.3733 57.1968 29.2943 54.9253 29.2943Z" fill="#21558A"/>
<path d="M54.9253 38.0997C44.4075 38.0997 35.8508 29.5429 35.8508 19.0252C36.8987 -6.27976 72.956 -6.27225 74 19.0253C74 29.543 65.4432 38.0997 54.9253 38.0997ZM54.9253 3.13038C46.1608 3.13038 39.0305 10.2607 39.0305 19.0252C39.9035 40.112 69.9502 40.1057 70.8202 19.0251C70.8203 10.2608 63.6899 3.13038 54.9253 3.13038Z" fill="black"/>
<path d="M48.3139 17.8235C47.21 17.8481 46.3984 16.6359 46.8455 15.6252C47.3695 14.3274 49.2576 14.3287 49.7822 15.6252C50.2279 16.636 49.4181 17.8472 48.3139 17.8235Z" fill="#21558A"/>
<path d="M61.5371 17.8234C60.4265 17.8413 59.6264 16.6445 60.0686 15.6251C60.5917 14.3281 62.4826 14.3278 63.0055 15.6251C63.4488 16.6433 62.6472 17.8418 61.5371 17.8234Z" fill="#21558A"/>
<path d="M45.9106 63.545C48.4467 61.2916 48.5034 57.0353 45.9134 54.7291C49.9429 51.0329 47.2249 44.3266 41.7588 44.3235H33.0063V38.4775C33.0063 34.3843 29.6762 31.0542 25.583 31.0542C23.062 31.0542 21.0108 33.1052 21.0108 35.6264V40.2183C21.0452 43.8257 18.4828 46.9982 14.934 47.5669V46.9986C14.934 46.1206 14.2222 45.4088 13.3441 45.4088H1.58984C0.711816 45.4088 0 46.1206 0 46.9986V72.3608C0 73.2388 0.711816 73.9506 1.58984 73.9506H13.3443C14.2223 73.9506 14.9341 73.2388 14.9341 72.3608V70.9817C16.9956 72.4407 20.1753 73.9506 24.5109 73.9506H41.8487C47.3279 73.9209 49.89 67.2298 45.9106 63.545ZM11.7544 70.771H3.17969V48.5884H11.7544V70.771ZM43.8408 69.9451C43.3082 70.4777 42.6009 70.771 41.8487 70.771H24.5109C19.0322 70.771 15.8915 67.8472 14.9341 66.7893V50.7839C20.2196 50.2153 24.2558 45.539 24.1906 40.2183V35.6266C24.1906 34.8588 24.8153 34.234 25.5832 34.234C27.923 34.234 29.8268 36.1377 29.8268 38.4776V45.9135C29.8268 46.7915 30.5386 47.5033 31.4166 47.5033H41.7591C44.3032 47.502 45.6362 50.5215 43.8408 52.3136C43.3084 52.846 42.6009 53.1394 41.8487 53.1394H37.4408C36.5628 53.1394 35.851 53.8513 35.851 54.7293C35.851 55.6073 36.5628 56.3191 37.4408 56.3191H41.8487C43.3617 56.2875 44.6985 57.6242 44.6668 59.1372C44.6668 60.6911 43.4026 61.9551 41.8487 61.9551H37.4408C36.5628 61.9551 35.851 62.6669 35.851 63.545C35.851 64.423 36.5628 65.1348 37.4408 65.1348H41.8487C44.3368 65.1256 45.6118 68.1934 43.8408 69.9451Z" fill="#21558A"/>
</g>
<defs>
<clipPath id="clip0_211_5350">
<rect width="74" height="74" fill="white"/>
</clipPath>
</defs>
</svg>

<svg xmlns="http://www.w3.org/2000/svg" width="74" height="74" fill="none"><g clip-path="url(#a)"><path fill="#21558A" d="M54.925 29.294c-2.271 0-4.43-.92-6.077-2.593-1.42-1.56.724-3.675 2.265-2.232a5.264 5.264 0 0 0 7.625 0c1.537-1.442 3.687.67 2.265 2.232-1.648 1.672-3.806 2.593-6.078 2.593"/><path fill="#000" d="M54.925 38.1c-10.517 0-19.074-8.557-19.074-19.075C36.899-6.28 72.956-6.272 74 19.025 74 29.543 65.443 38.1 54.925 38.1m0-34.97c-8.764 0-15.894 7.13-15.894 15.895.873 21.087 30.92 21.08 31.79 0 0-8.764-7.131-15.895-15.896-15.895"/><path fill="#21558A" d="M48.314 17.824c-1.104.024-1.916-1.188-1.468-2.199.524-1.298 2.412-1.296 2.936 0 .446 1.011-.364 2.222-1.468 2.198M61.537 17.823c-1.11.018-1.91-1.178-1.468-2.198.523-1.297 2.414-1.297 2.936 0 .444 1.018-.358 2.217-1.468 2.198M45.91 63.545c2.537-2.253 2.593-6.51.003-8.816 4.03-3.696 1.312-10.402-4.154-10.405h-8.753v-5.846c0-4.094-3.33-7.424-7.423-7.424a4.577 4.577 0 0 0-4.572 4.572v4.592c.034 3.608-2.528 6.78-6.077 7.349v-.568a1.59 1.59 0 0 0-1.59-1.59H1.59A1.59 1.59 0 0 0 0 46.999V72.36c0 .878.712 1.59 1.59 1.59h11.754a1.59 1.59 0 0 0 1.59-1.59v-1.38c2.062 1.46 5.241 2.97 9.577 2.97h17.338c5.479-.03 8.041-6.721 4.062-10.406m-34.156 7.226H3.18V48.588h8.574zm32.087-.826a2.8 2.8 0 0 1-1.992.826H24.51c-5.479 0-8.62-2.924-9.577-3.982V50.784c5.286-.569 9.322-5.245 9.257-10.566v-4.591c0-.768.624-1.393 1.392-1.393a4.25 4.25 0 0 1 4.244 4.244v7.435c0 .879.712 1.59 1.59 1.59h10.342c2.544-.001 3.877 3.019 2.082 4.81a2.8 2.8 0 0 1-1.992.826H37.44a1.59 1.59 0 0 0 0 3.18h4.408c1.513-.032 2.85 1.305 2.818 2.818a2.82 2.82 0 0 1-2.818 2.818H37.44a1.59 1.59 0 0 0 0 3.18h4.408c2.488-.01 3.763 3.058 1.992 4.81"/></g><defs><clipPath id="a"><path fill="#fff" d="M0 0h74v74H0z"/></clipPath></defs></svg>
